X:72
T:Twenty-Ninth of May
L:1/4
M:4/4
K:Gmaj clef=treble
P:A
[||:"G"d'b "C"c'b | "D"a/2g/2f/2e/2 d a/2b/2 | \
"C"c'e "D"fe/2f/2 \
|1 "G"gdB A/2G/2 :|2 "G"g3 d |]
"G"Bddc/2d/2 | "C"cee>e | "D"f/2g/2a f/2g/2a | "D"fe/2f/2 dg/2a/2 |
"G"ba/2b/2 ga/2b/2 | "C"c'b/2c'/2 "(D)"ab/2c'/2 | "Am"d'e "D"fe/2f/2 | "G"g4 |]

